X:488
L:1/8
M:2/2
K:G
 B2 dB AFED | E2 GE DB,A,G, | C2 EC B,D G2 | EcAF G2 G,2 :| Bddg Bddg | (fg/a/) fd (fg/a/) fd | 
 Bddg Bddg | e(g/e/) fa/(f/ g2) G2 | Bddg Bddg | (f/g/)a/ fd (fg/)a/ fd | ecBA dBAG | 
 EeAF G2 G,2 ||

